X:1
T:2
T:2
T:160 Kurze Übungen op. 821
T:Carl Czerny
C:Carl Czerny
%%score { 1 | 2 }
L:1/8
Q:1/4=155
M:3/4
K:C
V:1 treble nm="Piano" snm="Pno."
V:2 bass 
V:1
!f!"^Allegro" [eg]4 z .[ce] | [df]4 z .[Bd] | [ce]4 z .[Ge] | [FAd]4 z .[FAd] | [EGc]6 | [DFGB]6 | %6
 .[EGc](!2!G/A/!<(! !1!B/c/d/e/ f/g/a/b/!<)! | .c') z .[EGc] z z2 |] %8
V:2
 z/ (!5!C,/D,/E,/ F,/!1!G,/!3!A,/B,/ C) z | z/ (G,,/A,,/B,,/ C,/D,/E,/F,/ G,) z | %2
 z/ (!5!C,,/D,,/E,,/ F,,/G,,/!1!A,,/!3!B,,/ C,) z | %3
 z/ (!4!F,,/G,,/A,,/ !1!B,,/!4!^C,/D,/E,/ F,) z | %4
 z/ (!4!G,,/A,,/B,,/ !1!=C,/!4!B,,/!3!C,/!2!D,/ !1!E,/!4!D,/!3!E,/!2!F,/ | %5
 G,/!3!^F,/!1!G,/!3!F,/ !1!G,/F,/G,/!2!A,/ !1!G,/=F,/E,/D,/ | %6
 .C,) (!2!F,/E,/ !1!D,/C,/B,,/A,,/ !1!G,,/F,,/E,,/D,,/ | .C,,) z .[C,E,G,] z z2 |] %8

